X:1
T:Title
%%score { ( 1 3 ) | 2 }
L:1/8
M:4/4
K:G
V:1 treble nm="Grand Piano"
V:3 treble 
V:2 bass 
V:1
 z4 z2[Q:1/4=100] [F,D]2 | [G,B,G]2 [G,DG]2 [G,EG]2 G2 | B2 A2 [B,G]2 D2 | A2 A2 [Ac]2 [GB]2 | %4
 [FA]6 D2 | B2 B2 B2 [=FB]2 | [Ec]2 [Dd]2 e2 cA | z4 z2 A2 |[M:7/4] [B,G]6 z2 z2 z4 | %9
[M:4/4] [CG]4 [B,G]4 |] %10
V:2
 z4 z2 D,2 | G,,2 B,,2 C,2 [E,G,B,]2 | [D,G,D]2 [D,F,C]2 [G,,G,]2 [G,B,]2 | %3
 [F,A,D]2 [F,D]2 [F,D]2 [G,D]2 | [D,D]6 [F,A,]2 | [G,B,D]2 [F,A,^D]2 [E,G,E]2 [D,G,]2 | %6
 [C,G,]2 [B,,G,]2 [C,G,C]2 [C,C]2 | [D,B,D]2 [E,G,^C]2 [D,G,D]2 .[D,F,D]2 | %8
[M:7/4] [G,,G,]6 z2 z2 z4 |[M:4/4] [C,E,]4 [G,,G,]4 |] %10
V:3
 x8 | x8 | x8 | x8 | x8 | x8 | z4 z2 E2 | G2 G2 B2 z C |[M:7/4] x14 |[M:4/4] x8 |] %10

